src/components/00-materials/images-raw/Public Liability.svg

<svg width="96" height="96" viewBox="0 0 96 96" fill="none" xmlns="http://www.w3.org/2000/svg">
<path d="M16.13 58.6302H27.66V62.1802H39.71V65.7402H51.76V69.2902H63.82V72.8502H75.87V76.4102M71.76 61.6002C71.93 62.0302 71.66 62.6002 71.07 63.1602C70.5309 63.6657 69.9212 64.0901 69.26 64.4202L69.09 64.5102C68.8 64.6502 68.5 64.7902 68.18 64.9102M75.05 64.1202C75.28 64.7302 74.9 65.5102 74.05 66.3102C73.2953 67.0077 72.4472 67.5967 71.53 68.0602L71.29 68.1802C70.89 68.3802 70.47 68.5702 70.03 68.7402M31.56 33.3602C30.27 36.0102 31.56 38.6802 33.89 40.1202L46.78 48.0002C47.4973 48.4241 48.3306 48.6097 49.16 48.5302C54.56 51.0002 57.91 55.0702 60.1 61.0002C61.43 64.6002 67.03 62.5902 65.7 59.0002C63.52 53.1202 60.19 48.4002 55.36 45.1902C56.6926 43.0405 58.6649 41.362 61 40.3902C61.3054 40.2544 61.5859 40.0685 61.83 39.8402C63.6425 39.7499 65.4589 39.9047 67.23 40.3002C67.9647 40.5137 68.754 40.4266 69.4245 40.0581C70.0949 39.6896 70.5915 39.0699 70.805 38.3352C71.0185 37.6006 70.9314 36.8112 70.5629 36.1408C70.1944 35.4703 69.5747 34.9737 68.84 34.7602C66.3111 34.1534 63.7042 33.9375 61.11 34.1202C60.2738 34.1639 59.4848 34.5209 58.9 35.1202C58.687 35.1655 58.4793 35.2325 58.28 35.3202C55.9796 36.3259 53.9306 37.8285 52.28 39.7202C51.9722 39.4261 51.6374 39.1616 51.28 38.9302L46.92 36.2602C48.5054 33.5294 49.3145 30.4174 49.26 27.2602C49.26 23.4102 43.26 23.7902 43.32 27.6002C43.3434 29.5463 42.8352 31.4618 41.85 33.1402L39.4 31.6902C41.4001 28.3182 43.1096 24.7822 44.51 21.1202C45.82 17.6402 40.27 16.0002 39 19.5102C37.2092 24.0857 34.9116 28.4462 32.15 32.5102C31.9334 32.7742 31.7488 33.0629 31.6 33.3702L31.56 33.3602Z" stroke="#00008F" stroke-width="2" stroke-linecap="round" stroke-linejoin="round"/>
<path d="M26.71 34.9C29.8525 34.9 32.4 32.3525 32.4 29.21C32.4 26.0675 29.8525 23.52 26.71 23.52C23.5675 23.52 21.02 26.0675 21.02 29.21C21.02 32.3525 23.5675 34.9 26.71 34.9Z" stroke="#00008F" stroke-width="2" stroke-linecap="round" stroke-linejoin="round"/>
</svg>

<svg width="96" height="96" viewBox="0 0 96 96" fill="none" xmlns="http://www.w3.org/2000/svg"><path d="M16.13 58.63h11.53v3.55h12.05v3.56h12.05v3.55h12.06v3.56h12.05v3.56M71.76 61.6c.17.43-.1 1-.69 1.56-.54.506-1.149.93-1.81 1.26l-.17.09c-.29.14-.59.28-.91.4m6.87-.79c.23.61-.15 1.39-1 2.19a11.067 11.067 0 01-2.52 1.75l-.24.12c-.4.2-.82.39-1.26.56M31.56 33.36c-1.29 2.65 0 5.32 2.33 6.76L46.78 48a3.94 3.94 0 002.38.53C54.56 51 57.91 55.07 60.1 61c1.33 3.6 6.93 1.59 5.6-2-2.18-5.88-5.51-10.6-10.34-13.81a12.11 12.11 0 015.64-4.8c.305-.136.586-.322.83-.55 1.813-.09 3.629.065 5.4.46a2.885 2.885 0 001.61-5.54 25.463 25.463 0 00-7.73-.64 3.33 3.33 0 00-2.21 1c-.213.046-.42.113-.62.2a17.001 17.001 0 00-6 4.4 6.787 6.787 0 00-1-.79l-4.36-2.67a17.33 17.33 0 002.34-9c0-3.85-6-3.47-5.94.34a10.69 10.69 0 01-1.47 5.54l-2.45-1.45c2-3.372 3.71-6.908 5.11-10.57 1.31-3.48-4.24-5.12-5.51-1.61a65.797 65.797 0 01-6.85 13 4.333 4.333 0 00-.55.86l-.04-.01z" stroke="#00008F" stroke-width="2" stroke-linecap="round" stroke-linejoin="round"/><path d="M26.71 34.9a5.69 5.69 0 100-11.38 5.69 5.69 0 000 11.38z" stroke="#00008F" stroke-width="2" stroke-linecap="round" stroke-linejoin="round"/></svg>
